svg/white_balance_incandescent.svg

<svg xmlns="http://www.w3.org/2000/svg" viewBox="0 0 24 24"><path d="m17.24 18.15 1.8 1.8 1.41-1.42-1.79-1.79M20 12.5h3v-2h-3m-5-4.19V1.5H9v4.81C7.21 7.35 6 9.28 6 11.5a6 6 0 0 0 6 6 6 6 0 0 0 6-6c0-2.22-1.21-4.15-3-5.19M4 10.5H1v2h3m7 9.95h2V19.5h-2m-7.45-.97 1.41 1.42 1.8-1.8-1.42-1.41z"/></svg>

<?xml version="1.0" encoding="UTF-8"?><!DOCTYPE svg PUBLIC "-//W3C//DTD SVG 1.1//EN" "http://www.w3.org/Graphics/SVG/1.1/DTD/svg11.dtd"><svg xmlns="http://www.w3.org/2000/svg" xmlns:xlink="http://www.w3.org/1999/xlink" version="1.1" id="mdi-white-balance-incandescent" width="24" height="24" viewBox="0 0 24 24"><path d="M17.24,18.15L19.04,19.95L20.45,18.53L18.66,16.74M20,12.5H23V10.5H20M15,6.31V1.5H9V6.31C7.21,7.35 6,9.28 6,11.5A6,6 0 0,0 12,17.5A6,6 0 0,0 18,11.5C18,9.28 16.79,7.35 15,6.31M4,10.5H1V12.5H4M11,22.45C11.32,22.45 13,22.45 13,22.45V19.5H11M3.55,18.53L4.96,19.95L6.76,18.15L5.34,16.74L3.55,18.53Z" /></svg>
